X:199
T:German Spa,3voices. JGi.199
M:2/4
L:1/8
Q:1/4=90
S:Joshua Gibbons MS,1823,Tealby,Lincs.
R:quick step
O:Tealby,Lincolnshire
Z:VMP/R.Greig, 2009
K:C
[V:1]|:e>f [e/g/][d/f/][c/e/][B/d/]|ccd2|ee/c/ ff/d/|ee/c/ d2|
[V:2]|:c>d e/d/c/B/|cc/A/B2|cc B/d/B/d/|ccB2|
[V:3]|:C,2CG,|CG,G,2|E,E, G,G,|CCG,2|
[V:1]e>f g/f/e/d/|ccd2|ee/c/ ff/d/|cBc2:|
[V:2]c>d e/d/c/B/|cc/A/ B2|cc B/d/B/d/|cGE2:|
[V:3]C,2CG,|CC,G,2|E,E, G,G,|E,G,C,2:|
[V:1]|:e>f gg|a/b/c’/a/g2|c’c’/b/ aa/g/|ff/e/d2|
[V:2]|:c>d ec|c/c/c/c/B2|cf ff/e/|dd/c/B2|
[V:3]|:C,2CC|F,D,G,2|A,B, CC|B,CG,2|
[V:1]a/b/c’/a/ ga/b/|e>f gg|c’b ag|^f/g/a/f/”DC”g2|]
[V:2]c>d ec|c/c/c/c/B2|AF cc/B/ |AA”DC”[B2G2]|]
[V:3]C,2CC|F,D,G,2|C,2B,,2|D,2″DC”G,,2|]

